src/assets/sponsors/polygon.svg

<svg fill="none" height="73" viewBox="0 0 207 73" width="207" xmlns="http://www.w3.org/2000/svg"><path d="m60.1667 37.0187v10.8525c-.0039.6768-.1834 1.341-.5209 1.9276s-.8214 1.0756-1.4045 1.4192l-9.401 5.415c-.5823.3471-1.2475.5303-1.9254.5303-.6778 0-1.3431-.1832-1.9253-.5303l-9.4011-5.415c-.5831-.3436-1.067-.8326-1.4045-1.4192-.3374-.5866-.5169-1.2508-.5208-1.9276v-3.0459l4.8133-2.794v5.2947l8.4234 4.8885 8.4233-4.8885v-9.7546l-8.4233-4.8885-19.7347 11.4317c-.5877.3311-1.2508.5051-1.9254.5051-.6745 0-1.3376-.174-1.9253-.5051l-9.4011-5.4376c-.5741-.3488-1.0487-.8396-1.3781-1.4252-.3293-.5855-.5022-1.246-.5021-1.9178v-10.8526c.0039-.6768.1834-1.3409.5209-1.9276.3374-.5866.8214-1.0756 1.4044-1.4192l9.4011-5.415c.5835-.3436 1.2482-.5248 1.9253-.5248.6772 0 1.3419.1812 1.9254.5248l9.4011 5.415c.583.3436 1.067.8326 1.4044 1.4192.3375.5867.517 1.2508.5209 1.9276v3.0459l-4.8434 2.7752v-5.2646l-8.4234-4.8885-8.4234 4.8885v9.7433l8.4234 4.8886 19.7347-11.4317c.5877-.3312 1.2508-.5051 1.9254-.5051.6745 0 1.3376.1739 1.9253.5051l9.4011 5.4375c.5797.3452 1.0603.8344 1.395 1.4202.3348.5858.5123 1.2482.5153 1.9229z" fill="#7b3fe4"/><g fill="#fff"><path d="m76.9186 51.8159v-8.4572c.9175 1.1544 2.5834 1.8012 4.5125 1.8012 4.9261 0 8.2541-3.4972 8.2541-8.8294 0-5.3323-3.0572-8.8295-7.8442-8.8295-2.2074 0-3.9071.816-4.9262 2.1397v-1.8803h-4.7156v24.0442zm3.9296-10.7323c-2.5496 0-4.2117-1.9027-4.2117-4.7531s1.6621-4.7871 4.2117-4.7871c2.4781 0 4.1778 1.8803 4.1778 4.7871s-1.6884 4.7531-4.1778 4.7531z"/><path d="m100.404 45.1599c5.265 0 9.025-3.7378 9.025-8.8294 0-5.0917-3.76-8.8295-9.025-8.8295-5.2647 0-9.0251 3.7341-9.0251 8.8295 0 5.0953 3.7604 8.8294 9.0251 8.8294zm0-4.0763c-2.5459 0-4.2794-1.9366-4.2794-4.7531 0-2.8166 1.7373-4.7871 4.2794-4.7871 2.542 0 4.279 1.9329 4.279 4.7871 0 2.8541-1.73 4.7531-4.279 4.7531z"/><path d="m117.013 44.8893v-24.5556h-4.719v24.5556z"/><path d="m131.201 27.7717-3.565 11.0369-3.599-11.0369h-4.832l6.212 16.9784-2.512 7.0658h4.513l2.425-6.9906 6.216-17.0461z"/><path d="m149.316 29.4714c-.952-1.1883-2.632-1.9704-4.72-1.9704-4.993 0-8.013 3.4972-8.013 8.8295 0 5.3322 3.008 8.8294 8.081 8.8294 2.004 0 3.802-.752 4.686-2.0043v2.2563c0 1.5944-1.053 2.715-2.478 2.715h-7.879v3.704h8.627c3.869 0 6.449-2.3427 6.449-5.9114v-18.1478h-4.753zm-3.904 11.6122c-2.515 0-4.177-1.8802-4.177-4.7531 0-2.873 1.662-4.7871 4.177-4.7871 2.516 0 4.208 1.8803 4.208 4.7871s-1.662 4.7531-4.208 4.7531z"/><path d="m165.97 45.1599c5.265 0 9.025-3.7378 9.025-8.8294 0-5.0917-3.76-8.8295-9.025-8.8295-5.264 0-9.025 3.7341-9.025 8.8295 0 5.0953 3.761 8.8294 9.025 8.8294zm0-4.0763c-2.549 0-4.279-1.9366-4.279-4.7531 0-2.8166 1.73-4.7871 4.279-4.7871 2.55 0 4.28 1.9329 4.28 4.7871 0 2.8541-1.734 4.7531-4.28 4.7531z"/><path d="m182.339 44.8892v-9.3748c0-2.2073 1.459-3.8017 3.531-3.8017 1.971 0 3.294 1.5041 3.294 3.5648v9.6117h4.753v-10.6646c0-3.9409-2.511-6.7236-6.392-6.7236-2.343 0-4.242.9852-5.193 2.6323v-2.3616h-4.746v17.1175z"/></g></svg>

<svg width="207" height="73" viewBox="0 0 207 73" fill="none" xmlns="http://www.w3.org/2000/svg">
<path d="M60.1667 37.0187V47.8712C60.1628 48.548 59.9833 49.2122 59.6458 49.7988C59.3083 50.3854 58.8244 50.8744 58.2413 51.218L48.8403 56.633C48.258 56.9801 47.5928 57.1633 46.9149 57.1633C46.2371 57.1633 45.5718 56.9801 44.9896 56.633L35.5885 51.218C35.0054 50.8744 34.5215 50.3854 34.184 49.7988C33.8466 49.2122 33.6671 48.548 33.6632 47.8712V44.8253L38.4765 42.0313V47.326L46.8999 52.2145L55.3232 47.326V37.5714L46.8999 32.6829L27.1652 44.1146C26.5775 44.4457 25.9144 44.6197 25.2398 44.6197C24.5653 44.6197 23.9022 44.4457 23.3145 44.1146L13.9134 38.677C13.3393 38.3282 12.8647 37.8374 12.5353 37.2518C12.206 36.6663 12.0331 36.0058 12.0332 35.334V24.4814C12.0371 23.8046 12.2166 23.1405 12.5541 22.5538C12.8915 21.9672 13.3755 21.4782 13.9585 21.1346L23.3596 15.7196C23.9431 15.376 24.6078 15.1948 25.2849 15.1948C25.9621 15.1948 26.6268 15.376 27.2103 15.7196L36.6114 21.1346C37.1944 21.4782 37.6784 21.9672 38.0158 22.5538C38.3533 23.1405 38.5328 23.8046 38.5367 24.4814V27.5273L33.6933 30.3025V25.0379L25.2699 20.1494L16.8465 25.0379V34.7812L25.2699 39.6698L45.0046 28.2381C45.5923 27.9069 46.2554 27.733 46.93 27.733C47.6045 27.733 48.2676 27.9069 48.8553 28.2381L58.2564 33.6756C58.8361 34.0208 59.3167 34.51 59.6514 35.0958C59.9862 35.6816 60.1637 36.344 60.1667 37.0187V37.0187Z" fill="#7B3FE4"/>
<path d="M76.9186 51.8159V43.3587C77.8361 44.5131 79.502 45.1599 81.4311 45.1599C86.3572 45.1599 89.6852 41.6627 89.6852 36.3305C89.6852 30.9982 86.628 27.501 81.841 27.501C79.6336 27.501 77.9339 28.317 76.9148 29.6407V27.7604H72.1992V51.8046L76.9186 51.8159ZM80.8482 41.0836C78.2986 41.0836 76.6365 39.1809 76.6365 36.3305C76.6365 33.4801 78.2986 31.5434 80.8482 31.5434C83.3263 31.5434 85.026 33.4237 85.026 36.3305C85.026 39.2373 83.3376 41.0836 80.8482 41.0836Z" fill="white"/>
<path d="M100.404 45.1599C105.669 45.1599 109.429 41.4221 109.429 36.3305C109.429 31.2388 105.669 27.501 100.404 27.501C95.1393 27.501 91.3789 31.2351 91.3789 36.3305C91.3789 41.4258 95.1393 45.1599 100.404 45.1599ZM100.404 41.0836C97.8581 41.0836 96.1246 39.147 96.1246 36.3305C96.1246 33.5139 97.8619 31.5434 100.404 31.5434C102.946 31.5434 104.683 33.4763 104.683 36.3305C104.683 39.1846 102.953 41.0836 100.404 41.0836Z" fill="white"/>
<path d="M117.013 44.8893V20.3337H112.294V44.8893H117.013Z" fill="white"/>
<path d="M131.201 27.7717L127.636 38.8086L124.037 27.7717H119.205L125.417 44.7501L122.905 51.8159H127.418L129.843 44.8253L136.059 27.7792L131.201 27.7717Z" fill="white"/>
<path d="M149.316 29.4714C148.364 28.2831 146.684 27.501 144.596 27.501C139.603 27.501 136.583 30.9982 136.583 36.3305C136.583 41.6627 139.591 45.1599 144.664 45.1599C146.668 45.1599 148.466 44.4079 149.35 43.1556V45.4119C149.35 47.0063 148.297 48.1269 146.872 48.1269H138.993V51.8309H147.62C151.489 51.8309 154.069 49.4882 154.069 45.9195V27.7717H149.316V29.4714ZM145.412 41.0836C142.897 41.0836 141.235 39.2034 141.235 36.3305C141.235 33.4575 142.897 31.5434 145.412 31.5434C147.928 31.5434 149.62 33.4237 149.62 36.3305C149.62 39.2373 147.958 41.0836 145.412 41.0836Z" fill="white"/>
<path d="M165.97 45.1599C171.235 45.1599 174.995 41.4221 174.995 36.3305C174.995 31.2388 171.235 27.501 165.97 27.501C160.706 27.501 156.945 31.2351 156.945 36.3305C156.945 41.4258 160.706 45.1599 165.97 45.1599ZM165.97 41.0836C163.421 41.0836 161.691 39.147 161.691 36.3305C161.691 33.5139 163.421 31.5434 165.97 31.5434C168.52 31.5434 170.25 33.4763 170.25 36.3305C170.25 39.1846 168.516 41.0836 165.97 41.0836Z" fill="white"/>
<path d="M182.339 44.8892V35.5144C182.339 33.3071 183.798 31.7127 185.87 31.7127C187.841 31.7127 189.164 33.2168 189.164 35.2775V44.8892H193.917V34.2246C193.917 30.2837 191.406 27.501 187.525 27.501C185.182 27.501 183.283 28.4862 182.332 30.1333V27.7717H177.586V44.8892H182.339Z" fill="white"/>
</svg>
